X:1
M:9/8
K:D
B|:ABA GFG|deg f2f|gge efe|f3 e2e|deg ged|\
ded BcA|A3 -B2A|BdB cdc|
e2e ffg|a2g f2f|e2f g2a|g2f d2d|e2e edc|d2d d2f|
f2e a2g|e2e g2e|d2e e2e|a2f g3|gfg a2f|
dcd cBA|G2A A2e|fag gfg|e3 efe|d3 d2:|